frontend/public/assets/material-icons/folder-packages-open.svg

<svg xmlns="http://www.w3.org/2000/svg" viewBox="0 0 32 32">
  <path d="M28.96692,12H9.44152a2,2,0,0,0-1.89737,1.36754L4,24V10H28a2,2,0,0,0-2-2H15.1241a2,2,0,0,1-1.28038-.46357L12.5563,6.46357A2,2,0,0,0,11.27592,6H4A2,2,0,0,0,2,8V24a2,2,0,0,0,2,2H26l4.80523-11.21213A2,2,0,0,0,28.96692,12Z" style="fill: #1e88e5"/>
  <path d="M31.20005,12.93339l-1.6-2.13333A2.0001,2.0001,0,0,0,28,10H20a2,2,0,0,0-1.6.8l-1.6,2.13336a3.99988,3.99988,0,0,0-.8,2.39994V26a2,2,0,0,0,2,2H30a2,2,0,0,0,2-2V15.33331A4,4,0,0,0,31.20005,12.93339ZM20,12h8l1.5,2H18.50006Zm6,10v4H22V22H18l6-6,6,6Z" style="fill: #bbdefb;fill-rule: evenodd"/>
</svg>

<svg xmlns="http://www.w3.org/2000/svg" viewBox="0 0 32 32"><path fill="#1e88e5" d="M28.967 12H9.442a2 2 0 0 0-1.898 1.368L4 24V10h24a2 2 0 0 0-2-2H15.124a2 2 0 0 1-1.28-.464l-1.288-1.072A2 2 0 0 0 11.276 6H4a2 2 0 0 0-2 2v16a2 2 0 0 0 2 2h22l4.805-11.212A2 2 0 0 0 28.967 12"/><path fill="#bbdefb" d="M31.2 12.933 29.6 10.8A2 2 0 0 0 28 10h-8a2 2 0 0 0-1.6.8l-1.6 2.133a4 4 0 0 0-.8 2.4V26a2 2 0 0 0 2 2h12a2 2 0 0 0 2-2V15.333a4 4 0 0 0-.8-2.4M20 12h8l1.5 2h-11Zm6 10v4h-4v-4h-4l6-6 6 6Z"/></svg>
